X: 62
T:Grimstock
M:6/8
L:1/8
Q:160
S:Playford
O:Manuscript
A:English
K:A
a2 e A2 e|fga g2 e|cde f2 e|dec B2 A|a2 e a2 e|fga g2 e|cde f2 e|d>cb A3 :|
|: AAB cAB|cAB cAE|AAB cAB|cAB/2c/2 A4AAB cAB|cAB cAE|AAB cAB|cAB/2c/2 A4:|

